X: 1
T:Drops of Brandy
R:slip jig
Z:posted by Philippe Varlet 4/99
L:1/8
M:9/8
K:G
d2c BGB BGB|d2c BGB cBA|d2c BGB BGB|cBc A2B cBA:||
GBd gdB gdB|GBd gdB cBA|GBd gdB gdB|cBc A2B cBA |
GBd gdB gdB|GBd gdB cBA|GBd gba gdB|cBc A2B cBA ||
